X:20
T:Scatter the Mud
M:6/8
L:1/8
R:jig
K:Ador
|:"A"eAA B2A|eAA ABd|eAA B2A|"G"dBG GBd|
"A"eAA B2A|eAA AGE|"G"GAB Bge|dBG "A"A2d:|
|:eaa "G"egg|dBG GBd|"A"eaa "G"egg|dBG A2d|
"A"eaf "G"g2e|dBA "A"AGE|"G"GAB Bge|dBG "A"A2d:|
